images/play.svg

<svg fill="none" height="26" viewBox="0 0 26 26" width="26" xmlns="http://www.w3.org/2000/svg"><path clip-rule="evenodd" d="m.166992 13.0003c0-7.11664 5.716668-12.833308 12.833308-12.833308 7.1167 0 12.8334 5.716668 12.8334 12.833308 0 7.1167-5.7167 12.8334-12.8334 12.8334-7.11664 0-12.833308-5.7167-12.833308-12.8334zm2.333338 0c0 5.8334 4.66666 10.5 10.49997 10.5 5.8334 0 10.5-4.6666 10.5-10.5 0-5.83331-4.6666-10.49997-10.5-10.49997-5.83331 0-10.49997 4.66666-10.49997 10.49997zm15.86667-.9333-7-4.66667c-.35-.23334-.8167-.23334-1.1667 0-.46664.11666-.69997.46666-.69997.93333v9.33334c0 .4667.23333.8167.58337 1.05.2333.1167.35.1167.5833.1167s.4667-.1167.7-.2334l7-4.6666c.35-.2334.4667-.5834.4667-.9334s-.2334-.7-.4667-.9333zm-2.8.9333-3.7333-2.45v4.9z" fill="#fff" fill-rule="evenodd"/></svg>

<svg width="26" height="26" viewBox="0 0 26 26" fill="none" xmlns="http://www.w3.org/2000/svg">
<path fill-rule="evenodd" clip-rule="evenodd" d="M0.166992 13.0003C0.166992 5.88366 5.88366 0.166992 13.0003 0.166992C20.117 0.166992 25.8337 5.88366 25.8337 13.0003C25.8337 20.117 20.117 25.8337 13.0003 25.8337C5.88366 25.8337 0.166992 20.117 0.166992 13.0003ZM2.50033 13.0003C2.50033 18.8337 7.16699 23.5003 13.0003 23.5003C18.8337 23.5003 23.5003 18.8337 23.5003 13.0003C23.5003 7.16699 18.8337 2.50033 13.0003 2.50033C7.16699 2.50033 2.50033 7.16699 2.50033 13.0003ZM18.367 12.067L11.367 7.40033C11.017 7.16699 10.5503 7.16699 10.2003 7.40033C9.73366 7.51699 9.50033 7.86699 9.50033 8.33366V17.667C9.50033 18.1337 9.73366 18.4837 10.0837 18.717C10.317 18.8337 10.4337 18.8337 10.667 18.8337C10.9003 18.8337 11.1337 18.717 11.367 18.6003L18.367 13.9337C18.717 13.7003 18.8337 13.3503 18.8337 13.0003C18.8337 12.6503 18.6003 12.3003 18.367 12.067ZM15.567 13.0003L11.8337 10.5503V15.4503L15.567 13.0003Z" fill="white"/>
</svg>
